X: 113
M: C
L: 1/8
K: Bm
[|\
c4 c4 | B4 B3 c | {d2}f4 f4{b2} | (f e3) d2 (cd) |
{B2}A4 {A2}Ha4 | B4 B3 c | d2 f4 (3(fga) |
{f}e3 d Tc4 | B8 |]

